coreui/free/cil-https.svg

<svg xmlns="http://www.w3.org/2000/svg" viewBox="0 0 512 512">
  <path fill="var(--ci-primary-color, currentColor)" d="M400,200H388V144a128,128,0,0,0-256,0v56H120a24.028,24.028,0,0,0-24,24V472a24.028,24.028,0,0,0,24,24H400a24.028,24.028,0,0,0,24-24V224A24.028,24.028,0,0,0,400,200ZM164,144a96,96,0,0,1,192,0v56H164ZM392,464H128V232H392Z" class="ci-primary"/>
  <rect width="40" height="40" x="240" y="328" fill="var(--ci-primary-color, currentColor)" class="ci-primary"/>
</svg>

<svg viewBox="0 0 512 512" xmlns="http://www.w3.org/2000/svg"><g><path d="M400 200h-12v-56 0c0-70.7-57.31-128-128-128 -70.7 0-128 57.3-128 128v56h-12v0c-13.25.01-23.99 10.75-24 24v248 -.001c.01 13.24 10.75 23.98 24 24h280 0c13.24-.02 23.98-10.76 24-24v-248 0c-.02-13.25-10.76-23.99-24-24Zm-236-56v0c0-53.02 42.98-96 96-96 53.01 0 96 42.98 96 96v56H164Zm228 320H128V232h264Z"/><path d="M240 328h40v40h-40Z"/></g></svg>
